!!!OTL: "Die Rabenmutter" ES HUETET EIN SCHAEFER AN JENEM RAIN
!!!ARE: Europa, Mitteleuropa, Deutschland, Franken
!!!SCT: Z1097
!!!YEM: Copyright 1995, estate of Helmut Schaffrath.
**kern
*ICvox
*Ivox
*M3/4
*k[f#]
*G:
=1
{4dd
4g
4a
=2
8g
8f#
4g
4r}
=3
{4d
4b-
4cc
=4
8dd
8cc
4b-
4r}
=5
{4dd
4ffn
8ee-
8dd
=6
4dd
4ee-
4dd
=7
2cc
4cc
=8
4b-
2r}
=9
{4dd
4dd
4cc
=10
8b
8dd
4cc
4r}
=11
{4dd
4ee-
4dd
=12
4cc
4dd
4r}
=13
{8g
8f#
4g
4a
=14
8b-
8cc
4dd
8cc
8b-
=15
2a
4a
=16
4g
2r}
==
!!!AGN: Romanze, Ballade, Tod
!!!ONB: ESAC (Essen Associative Code) Database: ZUCCAL
!!!AMT: simple triple
!!!AIN: vox
!!!EED: Helmut Schaffrath
!!!EEV: 1.0
*-
